apps/wow-docs/public/icon/icon_grid.svg

<svg width="692" height="193" viewBox="0 0 692 193" fill="none" xmlns="http://www.w3.org/2000/svg">
<g clip-path="url(#clip0_2821_5431)">
<rect width="192" height="192" transform="translate(0 0.337891)" fill="white"/>
<circle cx="96" cy="96.3379" r="80" stroke="#FF0000" stroke-opacity="0.1"/>
<rect x="16" y="32.3379" width="160" height="128" stroke="#FF0000" stroke-opacity="0.1"/>
<rect x="160" y="16.3379" width="160" height="128" transform="rotate(90 160 16.3379)" stroke="#FF0000" stroke-opacity="0.1"/>
<rect y="0.337891" width="192" height="16" fill="#FF0000" fill-opacity="0.1"/>
<rect y="176.338" width="192" height="16" fill="#FF0000" fill-opacity="0.1"/>
<rect x="192" y="0.337891" width="192" height="16" transform="rotate(90 192 0.337891)" fill="#FF0000" fill-opacity="0.1"/>
<rect x="16" y="0.337891" width="192" height="16" transform="rotate(90 16 0.337891)" fill="#FF0000" fill-opacity="0.1"/>
<path d="M96 0.337891L96 192.338" stroke="#FF0000" stroke-opacity="0.5"/>
<path d="M192 96.3379L-1.00136e-05 96.3379" stroke="#FF0000" stroke-opacity="0.5"/>
</g>
<g clip-path="url(#clip1_2821_5431)">
<rect width="24" height="24" transform="translate(651.5 96.3379)" fill="white"/>
<circle cx="663.5" cy="108.338" r="10" stroke="#FF0000" stroke-opacity="0.1" stroke-width="0.1"/>
<rect x="653.5" y="100.338" width="20" height="16" stroke="#FF0000" stroke-opacity="0.1" stroke-width="0.1"/>
<rect x="671.5" y="98.3379" width="20" height="16" transform="rotate(90 671.5 98.3379)" stroke="#FF0000" stroke-opacity="0.1" stroke-width="0.1"/>
<rect x="651.5" y="96.3379" width="24" height="2" fill="#FF0000" fill-opacity="0.1"/>
<rect x="651.5" y="118.338" width="24" height="2" fill="#FF0000" fill-opacity="0.1"/>
<rect x="675.5" y="96.3379" width="24" height="2" transform="rotate(90 675.5 96.3379)" fill="#FF0000" fill-opacity="0.1"/>
<rect x="653.5" y="96.3379" width="24" height="2" transform="rotate(90 653.5 96.3379)" fill="#FF0000" fill-opacity="0.1"/>
<path d="M672.5 108.338H654.5" stroke="#121212" stroke-width="1.4" stroke-linejoin="bevel"/>
<path d="M672.5 101.338H654.5" stroke="#121212" stroke-width="1.4" stroke-linejoin="bevel"/>
<path d="M672.5 115.338H654.5" stroke="#121212" stroke-width="1.4" stroke-linejoin="bevel"/>
</g>
<g clip-path="url(#clip2_2821_5431)">
<rect width="20" height="20" transform="translate(551.5 96.3379)" fill="white"/>
<circle cx="561.5" cy="106.338" r="8" stroke="#FF0000" stroke-opacity="0.1" stroke-width="0.1"/>
<rect x="553.5" y="100.338" width="16" height="12" stroke="#FF0000" stroke-opacity="0.1" stroke-width="0.1"/>
<rect x="567.5" y="98.3379" width="16" height="12" transform="rotate(90 567.5 98.3379)" stroke="#FF0000" stroke-opacity="0.1" stroke-width="0.1"/>
<rect x="551.5" y="96.3379" width="20" height="2" fill="#FF0000" fill-opacity="0.1"/>
<rect x="551.5" y="114.338" width="20" height="2" fill="#FF0000" fill-opacity="0.1"/>
<rect x="571.5" y="96.3379" width="20" height="2" transform="rotate(90 571.5 96.3379)" fill="#FF0000" fill-opacity="0.1"/>
<rect x="553.5" y="96.3379" width="20" height="2" transform="rotate(90 553.5 96.3379)" fill="#FF0000" fill-opacity="0.1"/>
<path d="M560.5 112.338L555.5 106.338L560.5 100.338" stroke="#121212" stroke-width="1.4" stroke-linejoin="bevel"/>
<path d="M565.5 112.338L560.5 106.338L565.5 100.338" stroke="#121212" stroke-width="1.4" stroke-linejoin="bevel"/>
</g>
<g clip-path="url(#clip3_2821_5431)">
<rect width="14" height="14" transform="translate(454.5 96.3379)" fill="white"/>
<circle cx="461.5" cy="103.338" r="6" stroke="#FF0000" stroke-opacity="0.1" stroke-width="0.1"/>
<rect x="455.5" y="98.3379" width="12" height="10" stroke="#FF0000" stroke-opacity="0.1" stroke-width="0.1"/>
<rect x="466.5" y="97.3379" width="12" height="10" transform="rotate(90 466.5 97.3379)" stroke="#FF0000" stroke-opacity="0.1" stroke-width="0.1"/>
<rect x="454.5" y="96.3379" width="14" height="1" fill="#FF0000" fill-opacity="0.1"/>
<rect x="454.5" y="109.338" width="14" height="1" fill="#FF0000" fill-opacity="0.1"/>
<rect x="468.5" y="96.3379" width="14" height="0.999999" transform="rotate(90 468.5 96.3379)" fill="#FF0000" fill-opacity="0.1"/>
<rect x="455.5" y="96.3379" width="14" height="0.999999" transform="rotate(90 455.5 96.3379)" fill="#FF0000" fill-opacity="0.1"/>
<path d="M465.5 108.338L461.5 103.338L465.5 98.3379" stroke="#121212" stroke-width="1.2" stroke-linejoin="bevel"/>
<path d="M457.5 108.338L461.5 103.338L457.5 98.3379" stroke="#121212" stroke-width="1.2" stroke-linejoin="bevel"/>
</g>
<rect x="429.5" y="45.8379" width="55" height="29" rx="14.5" fill="white"/>
<rect x="429.5" y="45.8379" width="55" height="29" rx="14.5" stroke="#6B6B6B"/>
<path d="M446.426 65.3799L444.97 65.3659V56.7559L443.192 57.7639L442.576 56.5459L444.984 55.2019H446.426V65.3799ZM454.323 61.4599H455.625V62.7339H454.323V65.3799H452.881V62.7339H448.485L448.345 61.4599L452.937 55.1879H454.323V61.4599ZM452.881 61.4599V57.6099L450.081 61.4599H452.881ZM460.947 64.3019C461.572 64.3019 462.081 64.0732 462.473 63.6159C462.865 63.1492 463.061 62.5426 463.061 61.7959C463.061 61.0586 462.865 60.4612 462.473 60.0039C462.081 59.5466 461.572 59.3179 460.947 59.3179C460.555 59.3179 460.191 59.4299 459.855 59.6539C459.519 59.8779 459.253 60.1812 459.057 60.5639C458.861 60.9372 458.763 61.3479 458.763 61.7959C458.763 62.2532 458.861 62.6732 459.057 63.0559C459.253 63.4386 459.519 63.7419 459.855 63.9659C460.191 64.1899 460.555 64.3019 460.947 64.3019ZM457.293 58.1139H458.749V59.3739C459.001 58.9539 459.351 58.6412 459.799 58.4359C460.247 58.2212 460.658 58.1139 461.031 58.1139C461.712 58.1139 462.314 58.2726 462.837 58.5899C463.369 58.8979 463.78 59.3319 464.069 59.8919C464.368 60.4426 464.517 61.0772 464.517 61.7959C464.517 62.5146 464.368 63.1586 464.069 63.7279C463.78 64.2879 463.369 64.7266 462.837 65.0439C462.314 65.3519 461.712 65.5059 461.031 65.5059C460.658 65.5059 460.247 65.3986 459.799 65.1839C459.351 64.9599 459.001 64.6379 458.749 64.2179V68.5719H457.293V58.1139ZM469.66 61.7819L472.362 65.4359H470.556L468.806 62.9579L467.07 65.4359H465.264L467.924 61.7819L465.208 58.1139H467.028L468.806 60.6619L470.57 58.1139H472.39L469.66 61.7819Z" fill="#121212"/>
<rect x="531.5" y="45.8379" width="57" height="29" rx="14.5" fill="white"/>
<rect x="531.5" y="45.8379" width="57" height="29" rx="14.5" stroke="#6B6B6B"/>
<path d="M544.341 64.1059C544.472 63.9846 544.948 63.5459 545.769 62.7899C546.525 62.1086 547.127 61.5486 547.575 61.1099C548.033 60.6619 548.415 60.2046 548.723 59.7379C549.031 59.2619 549.185 58.8139 549.185 58.3939C549.185 57.8152 549.017 57.3439 548.681 56.9799C548.355 56.6066 547.93 56.4199 547.407 56.4199C547.006 56.4199 546.619 56.5506 546.245 56.8119C545.872 57.0732 545.597 57.4092 545.419 57.8199L544.145 57.2599C544.425 56.6252 544.869 56.1072 545.475 55.7059C546.091 55.2952 546.735 55.0899 547.407 55.0899C548.033 55.0899 548.588 55.2299 549.073 55.5099C549.568 55.7899 549.951 56.1819 550.221 56.6859C550.501 57.1806 550.641 57.7499 550.641 58.3939C550.641 59.0286 550.45 59.6586 550.067 60.2839C549.694 60.9092 549.237 61.4879 548.695 62.0199C548.163 62.5519 547.482 63.1726 546.651 63.8819L546.399 64.1059H550.795V65.3799H544.481L544.341 64.1059ZM555.838 64.1899C556.296 64.1899 556.702 64.0266 557.056 63.6999C557.42 63.3732 557.7 62.9159 557.896 62.3279C558.092 61.7306 558.19 61.0492 558.19 60.2839C558.19 59.5092 558.092 58.8279 557.896 58.2399C557.7 57.6519 557.425 57.1946 557.07 56.8679C556.716 56.5412 556.305 56.3779 555.838 56.3779C555.372 56.3779 554.956 56.5412 554.592 56.8679C554.238 57.1946 553.962 57.6519 553.766 58.2399C553.57 58.8279 553.472 59.5092 553.472 60.2839C553.472 61.0492 553.57 61.7306 553.766 62.3279C553.962 62.9159 554.238 63.3732 554.592 63.6999C554.956 64.0266 555.372 64.1899 555.838 64.1899ZM552.016 60.2839C552.016 59.2852 552.18 58.3939 552.506 57.6099C552.833 56.8166 553.286 56.2006 553.864 55.7619C554.443 55.3139 555.101 55.0899 555.838 55.0899C556.576 55.0899 557.234 55.3139 557.812 55.7619C558.391 56.2006 558.839 56.8166 559.156 57.6099C559.483 58.3939 559.646 59.2852 559.646 60.2839C559.646 61.2826 559.483 62.1786 559.156 62.9719C558.839 63.7559 558.391 64.3672 557.812 64.8059C557.234 65.2446 556.576 65.4639 555.838 65.4639C555.101 65.4639 554.443 65.2446 553.864 64.8059C553.286 64.3672 552.833 63.7559 552.506 62.9719C552.18 62.1786 552.016 61.2826 552.016 60.2839ZM564.947 64.3019C565.572 64.3019 566.081 64.0732 566.473 63.6159C566.865 63.1492 567.061 62.5426 567.061 61.7959C567.061 61.0586 566.865 60.4612 566.473 60.0039C566.081 59.5466 565.572 59.3179 564.947 59.3179C564.555 59.3179 564.191 59.4299 563.855 59.6539C563.519 59.8779 563.253 60.1812 563.057 60.5639C562.861 60.9372 562.763 61.3479 562.763 61.7959C562.763 62.2532 562.861 62.6732 563.057 63.0559C563.253 63.4386 563.519 63.7419 563.855 63.9659C564.191 64.1899 564.555 64.3019 564.947 64.3019ZM561.293 58.1139H562.749V59.3739C563.001 58.9539 563.351 58.6412 563.799 58.4359C564.247 58.2212 564.658 58.1139 565.031 58.1139C565.712 58.1139 566.314 58.2726 566.837 58.5899C567.369 58.8979 567.78 59.3319 568.069 59.8919C568.368 60.4426 568.517 61.0772 568.517 61.7959C568.517 62.5146 568.368 63.1586 568.069 63.7279C567.78 64.2879 567.369 64.7266 566.837 65.0439C566.314 65.3519 565.712 65.5059 565.031 65.5059C564.658 65.5059 564.247 65.3986 563.799 65.1839C563.351 64.9599 563.001 64.6379 562.749 64.2179V68.5719H561.293V58.1139ZM573.66 61.7819L576.362 65.4359H574.556L572.806 62.9579L571.07 65.4359H569.264L571.924 61.7819L569.208 58.1139H571.028L572.806 60.6619L574.57 58.1139H576.39L573.66 61.7819Z" fill="#121212"/>
<rect x="634.5" y="45.8379" width="57" height="29" rx="14.5" fill="white"/>
<rect x="634.5" y="45.8379" width="57" height="29" rx="14.5" stroke="#6B6B6B"/>
<path d="M647.656 64.1059C647.787 63.9846 648.263 63.5459 649.084 62.7899C649.84 62.1086 650.442 61.5486 650.89 61.1099C651.347 60.6619 651.73 60.2046 652.038 59.7379C652.346 59.2619 652.5 58.8139 652.5 58.3939C652.5 57.8152 652.332 57.3439 651.996 56.9799C651.669 56.6066 651.245 56.4199 650.722 56.4199C650.321 56.4199 649.933 56.5506 649.56 56.8119C649.187 57.0732 648.911 57.4092 648.734 57.8199L647.46 57.2599C647.74 56.6252 648.183 56.1072 648.79 55.7059C649.406 55.2952 650.05 55.0899 650.722 55.0899C651.347 55.0899 651.903 55.2299 652.388 55.5099C652.883 55.7899 653.265 56.1819 653.536 56.6859C653.816 57.1806 653.956 57.7499 653.956 58.3939C653.956 59.0286 653.765 59.6586 653.382 60.2839C653.009 60.9092 652.551 61.4879 652.01 62.0199C651.478 62.5519 650.797 63.1726 649.966 63.8819L649.714 64.1059H654.11V65.3799H647.796L647.656 64.1059ZM661.323 61.4599H662.625V62.7339H661.323V65.3799H659.881V62.7339H655.485L655.345 61.4599L659.937 55.1879H661.323V61.4599ZM659.881 61.4599V57.6099L657.081 61.4599H659.881ZM667.947 64.3019C668.572 64.3019 669.081 64.0732 669.473 63.6159C669.865 63.1492 670.061 62.5426 670.061 61.7959C670.061 61.0586 669.865 60.4612 669.473 60.0039C669.081 59.5466 668.572 59.3179 667.947 59.3179C667.555 59.3179 667.191 59.4299 666.855 59.6539C666.519 59.8779 666.253 60.1812 666.057 60.5639C665.861 60.9372 665.763 61.3479 665.763 61.7959C665.763 62.2532 665.861 62.6732 666.057 63.0559C666.253 63.4386 666.519 63.7419 666.855 63.9659C667.191 64.1899 667.555 64.3019 667.947 64.3019ZM664.293 58.1139H665.749V59.3739C666.001 58.9539 666.351 58.6412 666.799 58.4359C667.247 58.2212 667.658 58.1139 668.031 58.1139C668.712 58.1139 669.314 58.2726 669.837 58.5899C670.369 58.8979 670.78 59.3319 671.069 59.8919C671.368 60.4426 671.517 61.0772 671.517 61.7959C671.517 62.5146 671.368 63.1586 671.069 63.7279C670.78 64.2879 670.369 64.7266 669.837 65.0439C669.314 65.3519 668.712 65.5059 668.031 65.5059C667.658 65.5059 667.247 65.3986 666.799 65.1839C666.351 64.9599 666.001 64.6379 665.749 64.2179V68.5719H664.293V58.1139ZM676.66 61.7819L679.362 65.4359H677.556L675.806 62.9579L674.07 65.4359H672.264L674.924 61.7819L672.208 58.1139H674.028L675.806 60.6619L677.57 58.1139H679.39L676.66 61.7819Z" fill="#121212"/>
<path d="M359.424 96.7622C359.659 96.5278 359.659 96.1479 359.424 95.9136L355.606 92.0952C355.372 91.8609 354.992 91.8609 354.757 92.0952C354.523 92.3296 354.523 92.7095 354.757 92.9438L358.151 96.3379L354.757 99.732C354.523 99.9663 354.523 100.346 354.757 100.581C354.992 100.815 355.372 100.815 355.606 100.581L359.424 96.7622ZM277 96.9379H359V95.7379H277V96.9379Z" fill="#6B6B6B"/>
<defs>
<clipPath id="clip0_2821_5431">
<rect width="192" height="192" fill="white" transform="translate(0 0.337891)"/>
</clipPath>
<clipPath id="clip1_2821_5431">
<rect width="24" height="24" fill="white" transform="translate(651.5 96.3379)"/>
</clipPath>
<clipPath id="clip2_2821_5431">
<rect width="20" height="20" fill="white" transform="translate(551.5 96.3379)"/>
</clipPath>
<clipPath id="clip3_2821_5431">
<rect width="14" height="14" fill="white" transform="translate(454.5 96.3379)"/>
</clipPath>
</defs>
</svg>

<svg xmlns="http://www.w3.org/2000/svg" width="692" height="193" fill="none" viewBox="0 0 692 193"><g clip-path="url(#a)"><path fill="#fff" d="M0 .338h192v192H0z"/><circle cx="96" cy="96.338" r="80" stroke="red" stroke-opacity=".1"/><path stroke="red" stroke-opacity=".1" d="M16 32.338h160v128H16z"/><path stroke="red" stroke-opacity=".1" d="M160 16.338v160H32v-160z"/><path fill="red" fill-opacity=".1" d="M0 .338h192v16H0zM0 176.338h192v16H0z"/><path fill="red" fill-opacity=".1" d="M192 .338v192h-16v-192zM16 .338v192H0v-192z"/><path stroke="red" stroke-opacity=".5" d="M96 .338v192M192 96.338H0"/></g><g clip-path="url(#b)"><path fill="#fff" d="M651.5 96.338h24v24h-24z"/><circle cx="663.5" cy="108.338" r="10" stroke="red" stroke-opacity=".1" stroke-width=".1"/><path stroke="red" stroke-opacity=".1" stroke-width=".1" d="M653.5 100.338h20v16h-20z"/><path stroke="red" stroke-opacity=".1" stroke-width=".1" d="M671.5 98.338v20h-16v-20z"/><path fill="red" fill-opacity=".1" d="M651.5 96.338h24v2h-24zM651.5 118.338h24v2h-24z"/><path fill="red" fill-opacity=".1" d="M675.5 96.338v24h-2v-24zM653.5 96.338v24h-2v-24z"/><path stroke="#121212" stroke-linejoin="bevel" stroke-width="1.4" d="M672.5 108.338h-18M672.5 101.338h-18M672.5 115.338h-18"/></g><g clip-path="url(#c)"><path fill="#fff" d="M551.5 96.338h20v20h-20z"/><circle cx="561.5" cy="106.338" r="8" stroke="red" stroke-opacity=".1" stroke-width=".1"/><path stroke="red" stroke-opacity=".1" stroke-width=".1" d="M553.5 100.338h16v12h-16z"/><path stroke="red" stroke-opacity=".1" stroke-width=".1" d="M567.5 98.338v16h-12v-16z"/><path fill="red" fill-opacity=".1" d="M551.5 96.338h20v2h-20zM551.5 114.338h20v2h-20z"/><path fill="red" fill-opacity=".1" d="M571.5 96.338v20h-2v-20zM553.5 96.338v20h-2v-20z"/><path stroke="#121212" stroke-linejoin="bevel" stroke-width="1.4" d="m560.5 112.338-5-6 5-6M565.5 112.338l-5-6 5-6"/></g><g clip-path="url(#d)"><path fill="#fff" d="M454.5 96.338h14v14h-14z"/><circle cx="461.5" cy="103.338" r="6" stroke="red" stroke-opacity=".1" stroke-width=".1"/><path stroke="red" stroke-opacity=".1" stroke-width=".1" d="M455.5 98.338h12v10h-12z"/><path stroke="red" stroke-opacity=".1" stroke-width=".1" d="M466.5 97.338v12h-10v-12z"/><path fill="red" fill-opacity=".1" d="M454.5 96.338h14v1h-14zM454.5 109.338h14v1h-14z"/><path fill="red" fill-opacity=".1" d="M468.5 96.338v14h-1v-14zM455.5 96.338v14h-1v-14z"/><path stroke="#121212" stroke-linejoin="bevel" stroke-width="1.2" d="m465.5 108.338-4-5 4-5M457.5 108.338l4-5-4-5"/></g><rect width="55" height="29" x="429.5" y="45.838" fill="#fff" rx="14.5"/><rect width="55" height="29" x="429.5" y="45.838" stroke="#6B6B6B" rx="14.5"/><path fill="#121212" d="m446.426 65.38-1.456-.014v-8.61l-1.778 1.008-.616-1.218 2.408-1.344h1.442zm7.897-3.92h1.302v1.274h-1.302v2.646h-1.442v-2.646h-4.396l-.14-1.274 4.592-6.272h1.386zm-1.442 0v-3.85l-2.8 3.85zm8.066 2.842q.938 0 1.526-.686.588-.7.588-1.82 0-1.106-.588-1.792t-1.526-.686a1.93 1.93 0 0 0-1.092.336 2.37 2.37 0 0 0-.798.91 2.6 2.6 0 0 0-.294 1.232q0 .686.294 1.26t.798.91 1.092.336m-3.654-6.188h1.456v1.26q.378-.63 1.05-.938.672-.322 1.232-.322 1.022 0 1.806.476.798.462 1.232 1.302.448.825.448 1.904t-.448 1.932q-.434.84-1.232 1.316-.784.462-1.806.462-.56 0-1.232-.322a2.5 2.5 0 0 1-1.05-.966v4.354h-1.456zm12.367 3.668 2.702 3.654h-1.806l-1.75-2.478-1.736 2.478h-1.806l2.66-3.654-2.716-3.668h1.82l1.778 2.548 1.764-2.548h1.82z"/><rect width="57" height="29" x="531.5" y="45.838" fill="#fff" rx="14.5"/><rect width="57" height="29" x="531.5" y="45.838" stroke="#6B6B6B" rx="14.5"/><path fill="#121212" d="m544.341 64.106 1.428-1.316a62 62 0 0 0 1.806-1.68q.687-.672 1.148-1.372.462-.714.462-1.344 0-.868-.504-1.414-.49-.56-1.274-.56-.601 0-1.162.392a2.35 2.35 0 0 0-.826 1.008l-1.274-.56a3.57 3.57 0 0 1 1.33-1.554q.924-.615 1.932-.616.939 0 1.666.42.743.42 1.148 1.176.42.742.42 1.708 0 .953-.574 1.89a8.6 8.6 0 0 1-1.372 1.736 36 36 0 0 1-2.044 1.862l-.252.224h4.396v1.274h-6.314zm11.497.084q.687 0 1.218-.49.546-.49.84-1.372.294-.896.294-2.044 0-1.162-.294-2.044t-.826-1.372a1.76 1.76 0 0 0-1.232-.49q-.7 0-1.246.49-.532.49-.826 1.372t-.294 2.044q0 1.148.294 2.044.294.882.826 1.372.547.49 1.246.49m-3.822-3.906q0-1.498.49-2.674.49-1.19 1.358-1.848a3.14 3.14 0 0 1 1.974-.672q1.107 0 1.974.672.869.659 1.344 1.848.49 1.176.49 2.674 0 1.499-.49 2.688-.476 1.176-1.344 1.834a3.18 3.18 0 0 1-1.974.658q-1.105 0-1.974-.658-.867-.658-1.358-1.834-.49-1.19-.49-2.688m12.931 4.018q.938 0 1.526-.686.588-.7.588-1.82 0-1.106-.588-1.792t-1.526-.686a1.93 1.93 0 0 0-1.092.336 2.37 2.37 0 0 0-.798.91 2.6 2.6 0 0 0-.294 1.232q0 .686.294 1.26t.798.91 1.092.336m-3.654-6.188h1.456v1.26q.378-.63 1.05-.938.672-.322 1.232-.322 1.022 0 1.806.476.798.462 1.232 1.302.448.825.448 1.904t-.448 1.932q-.434.84-1.232 1.316-.784.462-1.806.462-.56 0-1.232-.322a2.5 2.5 0 0 1-1.05-.966v4.354h-1.456zm12.367 3.668 2.702 3.654h-1.806l-1.75-2.478-1.736 2.478h-1.806l2.66-3.654-2.716-3.668h1.82l1.778 2.548 1.764-2.548h1.82z"/><rect width="57" height="29" x="634.5" y="45.838" fill="#fff" rx="14.5"/><rect width="57" height="29" x="634.5" y="45.838" stroke="#6B6B6B" rx="14.5"/><path fill="#121212" d="m647.656 64.106 1.428-1.316a62 62 0 0 0 1.806-1.68q.686-.672 1.148-1.372.462-.714.462-1.344 0-.868-.504-1.414-.49-.56-1.274-.56-.602 0-1.162.392a2.35 2.35 0 0 0-.826 1.008l-1.274-.56a3.56 3.56 0 0 1 1.33-1.554q.924-.615 1.932-.616.938 0 1.666.42.742.42 1.148 1.176.42.742.42 1.708 0 .953-.574 1.89a8.6 8.6 0 0 1-1.372 1.736 36 36 0 0 1-2.044 1.862l-.252.224h4.396v1.274h-6.314zm13.667-2.646h1.302v1.274h-1.302v2.646h-1.442v-2.646h-4.396l-.14-1.274 4.592-6.272h1.386zm-1.442 0v-3.85l-2.8 3.85zm8.066 2.842q.938 0 1.526-.686.588-.7.588-1.82 0-1.106-.588-1.792t-1.526-.686a1.93 1.93 0 0 0-1.092.336 2.37 2.37 0 0 0-.798.91 2.6 2.6 0 0 0-.294 1.232q0 .686.294 1.26t.798.91 1.092.336m-3.654-6.188h1.456v1.26q.378-.63 1.05-.938.672-.322 1.232-.322 1.022 0 1.806.476.798.462 1.232 1.302.448.825.448 1.904t-.448 1.932q-.434.84-1.232 1.316-.784.462-1.806.462-.56 0-1.232-.322a2.5 2.5 0 0 1-1.05-.966v4.354h-1.456zm12.367 3.668 2.702 3.654h-1.806l-1.75-2.478-1.736 2.478h-1.806l2.66-3.654-2.716-3.668h1.82l1.778 2.548 1.764-2.548h1.82z"/><path fill="#6B6B6B" d="M359.424 96.762a.6.6 0 0 0 0-.848l-3.818-3.819a.6.6 0 0 0-.849.849l3.394 3.394-3.394 3.394a.601.601 0 0 0 .849.849zM277 96.938h82v-1.2h-82z"/><defs><clipPath id="a"><path fill="#fff" d="M0 .338h192v192H0z"/></clipPath><clipPath id="b"><path fill="#fff" d="M651.5 96.338h24v24h-24z"/></clipPath><clipPath id="c"><path fill="#fff" d="M551.5 96.338h20v20h-20z"/></clipPath><clipPath id="d"><path fill="#fff" d="M454.5 96.338h14v14h-14z"/></clipPath></defs></svg>
